Pictures/key-icon-mobile.svg

<svg width="20" height="20" viewBox="0 0 20 20" fill="none" xmlns="http://www.w3.org/2000/svg">
<path id="Path" d="M19.1076 1.50591e-06H0.860224C0.538187 -0.000593357 0.243138 0.175089 0.0960199 0.454871C-0.0531279 0.738422 -0.0269509 1.07987 0.163593 1.33883L6.84866 10.5411C6.85089 10.5443 6.85333 10.5473 6.85556 10.5504C7.09845 10.8709 7.22995 11.2591 7.23056 11.6579V19.1605C7.22914 19.3825 7.31842 19.5961 7.47853 19.7537C7.63884 19.9112 7.85677 20 8.08405 20C8.19951 19.9998 8.31396 19.9774 8.4207 19.934L12.1772 18.5345C12.5136 18.4339 12.7371 18.1236 12.7371 17.75V11.6579C12.7377 11.2591 12.8692 10.8709 13.1118 10.5504C13.1141 10.5473 13.1165 10.5443 13.1187 10.5411L19.804 1.33864C19.9946 1.07987 20.0207 0.73862 19.8716 0.45507C19.7247 0.175089 19.4294 -0.000593357 19.1076 1.50591e-06Z" fill="#6E8098"/>
</svg>

<svg xmlns="http://www.w3.org/2000/svg" width="20" height="20" fill="none"><path fill="#6E8098" d="M19.108 0H.86a.86.86 0 0 0-.764.455.833.833 0 0 0 .068.884l6.685 9.202.007.01c.242.32.374.708.375 1.107v7.502a.825.825 0 0 0 .248.594c.16.157.378.246.605.246.116 0 .23-.023.337-.066l3.756-1.4c.337-.1.56-.41.56-.784v-6.092c0-.399.132-.787.375-1.108l.007-.009 6.685-9.202c.19-.26.217-.6.068-.884A.86.86 0 0 0 19.108 0Z"/></svg>
